!!!!SEGMENT: pl-sa--l-1636--051_anonim-keyboard-piece.krn
!!!id: 17xx:758
!!!COM: Anonim
!!!OTL: Keyboard piece
!!!PDT:
!!!SMS-siglum: PL-SA
!!!SMS-shelfmark: L 1636
!!!NIFC-rismID: 1001076818
!!!URL-scan: http://repozytorium.nifc.pl/skany/pl-sa-nut--l1636
!!!ONB-nifc: 14r, skan 0017, s. 8
!!!SMS-variant:
!!!SMS-altvar:
**kern	**kern
*part2	*part1
*staff2	*staff1
*clefF4	*clefC1
*k[]	*k[]
*M2/2	*M2/2
*met(c|)	*met(c|)
=1	=1
*2\right	*2\right
*	*^
!LO:SIC:o:s:=:v:wszystkie caudy z prawej	!LO:SIC:o:s:=:v:wszystkie caudy z prawej	!
2.G\	2b/	2g\
.	4cc/	4a\
4F\	4dd/	4b\
=2	=2	=2
4E\	2ee/	4g\
4A\	.	4cc\
4F\	2dd/	4cc\
4G\	.	4b\
=3	=3	=3
4C/	4ee/	4cc\
4c\	4gg/	4ee\
4A\	2ff/	4ee\
4B\	.	4dd\
=4	=4	=4
4c\	2ee/	4dd\
4E\	.	4cc\
4F\	2dd/	4cc\
4G\	.	4b\
=5	=5	=5
4A\	2cc/	4b\
4C/	.	4a\
4D/	2b/	4a\
4E/	.	4g\
=6	=6	=6
4C/	2a/	4g\
4D/	.	4f#X\
4E\	4b/	2g\
4BB/	4dd/	.
=7	=7	=7
2C/	4cc/	4a\
.	4b/	4g\
2D/	2a/	4g\
.	.	4f#X\
*	*v	*v
=8	=8
1G/ 1D/ 1BB/ 1GG/	1g/ 1d/ 1B/
==	==
*-	*-
!!!system-decoration: [(s1,s2)]
!!!ENC:Andrzej Borzym
!!!END:2020-06-11
!!!EED: Leszek Kubiak
!!!EST: 2020-12-08
